X: 1314
T: Bullfrog Hop
C:Frank Bourke, 1923-89, Binnaway, NSW
B: australian traditional tunes wiki
M:4/4
L:1/8
R: Two Step
Q: 1/4=100
K:C
V:1 
"C"c>eB>e (3AeA G2|"G7"G>^GA>B "C"c2 "G7"z2||
|:S"C"c>eB>e (3AeA G2|G>G (3AGF "G7"G>F F2|d>fc>f (3BfB A2|"C"G>G (3AGF A>_A G2|
"C"c>eB>e (3AeA G2|G>G (3AGF "G7"G>F F2|(3fed (3fed "C"(3edc (3edc|"G7"G>^GA>B "C"c2"Fine"z2||
"C"(3edc (3BAG E>EE>G|(3edc (3BAG "G7"F>FF2|(3fed (3cA^A B>BB>A|(3BAG (3FD^D "C"E>EE2|
"C"(3edc (3BAG E>EE>G|(3edc (3BAG "G7"F>FF2|(3fed (3cA^A B>BB>=A|G>^GA>B "C"c2z2||
"C"e>ec>c A>AG2|z>GA>G "G7"B2 (3cde|f>fd>d (3BdBG2|z>GA>G "C"c2z2|
"C"e>ec>c (3AcAG2|z>GA>G "G7"B2 z2|f>fd>d (3BdBG2|G>^GA>B "C"c2z2:|
% abcbook-tune_id 6342d53adbf8613d2ff41448


% abcbook-boost 0
% abcbook-tablature 
% abcbook-transpose 
% abcbook-lastupdated 1665324358653
% abcbook-soundfonts 
% abcbook-repeats 1
% NFF Book 2015

